;FLAVOR:Marlin
;TIME:2275.9
;Filament used:4.47836m
;Material Diameter:1.75
;Material Density:1.24
;Filament Cost:0.267138
;Filament Weight:13.356919
;Filament Length:4.478356
;Layer height:0.28
;MINX:0.547
;MINY:0.557
;MINZ:0.1
;MAXX:127.531
;MAXY:126.784
;MAXZ:53.7
;OuterWall Time:407.183
;InnerWall Time:340.995
;Skin Time:281.591
;Support Time:76.541
;SkirtBrim Time:13.819
;Infill Time:667.113
;Support Infills Time:0
;Combing Time:143.289
;Retraction Time:313.976
;PrimeTower Time:31.392
;;;;;;;;;;;;;;;;;;;;;;;;;;;;;;;;;;;;;;;;;;;;;;;;;;;;;;;;;;;;;;;;
;Creality Print GCode Generated by CXEngine
;CRSLICE_GIT_HASH:58ee74d
;Creality Print Version : V4.3.8.6984
;CXEngine Release Time:2023-12-04 18:16:29
;Gcode Generated Time:2024-02-17 22:56:51
;----------Machine Config--------------
;Machine Name:Ender-3 V3 SE
;Machine Height:250
;Machine Width:220
;Machine Depth:220
;Material Type:PLA
;Material Name:CR-PLA_1.75
;Number of Extruders:1
;ExtruderParams[0] Nozzle Diameter:1000
;----------Profile Config---------------
;Wall Thickness:0.8
;Top/Bottom Thickness:0.8
;Out Wall Line Width:0.42
;Inner Wall Line Width:0.45
;Inital Height:100
;Wall Line Count:2
;Infill Line Distance:3.18
;Infill Pattern:grid
;Infill Sparse Density:28.28
;Infill Wipe Distance:0
;Print Temperature:190
;Bed Temperature:60
;Support Enable:true
;Support Density:15
;Support Angle:60
;Adhesion Type:skirt
;machine is belt:false
;machine belt offset:10
;machine belt offset Y:0
;Raft Base Line Spacing:1.6
;Wait Heatup Sync:true
;Enable Ironing:false
;Material Type:PLA
;Max volumetric speed:20
;Preview Img Type:png
;Screen Size:Sermoon D3
;----------Shell Config----------------
;Outer Wall Wipe Distance:2000
;Outer Inset First:false
;Infill Before Walls:false
;Infill Overlap:0.14
;Fill Gaps Between Walls:everywhere
;Minimum Infill Area:30
;Top Surface Skin Layer:0
;Top Layers:8
;Z Seam Alignment:sharpest_corner
;Seam Corner Preference:z_seam_corner_inner
;Z Seam X:110
;Z Seam Y:220
;Horizontal Expansion:0
;Top/Bottom Pattern:zigzag
;Ironing Pattern:zigzag
;Vase Model:false
;----------Support Config----------------
;Support Type:everywhere
;Support Pattern:zigzag
;Support Infill Layer Thickness:0.28
;Minimum Support Area:1
;Enable Support Roof:true
;Support Roof Thickness:0.8
;Support Roof Pattern:lines
;Connect Support Lines:0
;Connect Support ZigZags:1
;Minimum Support X/Y Distance:0.2
;Support Line Distance:2.67
; ---------PrintSpeed & Travel----------
;Enable Print Cool:true
;Avoid Printed Parts Traveling:true
;Enable Retraction:true
;Retraction Distance:1.2
;Retraction Speed:30
;Retraction Prime Speed:30
;Maximum Retraction Count:100
;Minimum Extrusion Distance Window:0.8
;Z Hop When Retracted:true
;Z Hop Height:0.4
;Retract Before Outer Wall:true

;Outer Wall Speed:96
;Inner Wall Speed:96
;Infill Speed:192
;Top/Bottom Speed:96
;Travel Speed:150
;Initial Layer Speed:30
;Skirt/Brim Speed:25
;Prime Tower Speed:192
;Outer Wall Acceleration:1000
;Inner Wall Acceleration:2000
;Infill Acceleration:2500
;Top/Bottom Acceleration:2500
;Travel Acceleration:2500
;Initial Layer Print Acceleration:500
;Initial Layer Travel Acceleration:500
;Skirt/Brim Acceleration:500
;Combing Mode:off
; --------SpecialModel&Mesh Fixes--------
;Union Overlapping Volum:true
;Remove All Holes:false
;Maximum Travel Resolution:0.2
;Maximum Deviation:0.05
;Maximum Model Angle:0.872665
;IS Mold Print:false
;Make Overhang Printable:false
;Enable Coasting:false
;Coasting Volumes:0.064
;Coasting Speed:0.9
;Raft AirGap:0.25
;Layer0 ZOverLap:0.13
;Adaptive Layers:0
;---------------------End of Head--------------------------
M140 S60
M105
M190 S60
M104 S190
M82 ;absolute extrusion mode
M220 S100 ;Reset Feedrate
M221 S100 ;Reset Flowrate

G28 ;Home

G92 E0 ;Reset Extruder
G1 Z2.0 F3000 ;Move Z Axis up
G1 X-2.1 Y20 Z0.28 F5000.0 ;Move to start position
M109 S190.000000
G1 X-2.1 Y145.0 Z0.28 F1500.0 E15 ;Draw the first line
G1 X-2.4 Y145.0 Z0.28 F5000.0 ;Move to side a little
G1 X-2.4 Y20 Z0.28 F1500.0 E30 ;Draw the second line
G92 E0  ;Reset Extruder
G1 E-1.0000 F1800 ;Retract a bit
G1 Z2.0 F3000 ;Move Z Axis up
G1 E0.0000 F1800 

G92 E0
G92 E0
G1 F1800 E-1.2
;LAYER_COUNT:191

;LAYER:0
M106 S0
M204 S500
;;retract;;
G1 F1800 E0
G1 F1800 E-1.2
G0 F1171.8 X0.547 Y0.557 Z20.401
G0 X92.937 Y94.527 Z0.5
;TYPE:SKIRT
G1 F600 Z0.1
G1 F1800 E0
G1 F1500 X92.574 Y94.974 E0.01106
G1 X92.277 Y95.468 E0.02213
G1 X92.05 Y95.997 E0.03319
G1 X91.899 Y96.553 E0.04426
G1 X91.778 Y97.162 E0.05618
G1 X91.316 Y99.663 E0.10503
G1 X90.991 Y101.653 E0.14376
G1 X90.658 Y103.571 E0.18115
G1 X90.129 Y106.444 E0.23727
G1 X89.791 Y108.507 E0.27742
G1 X89.446 Y110.486 E0.316
G1 X88.903 Y113.439 E0.37368
G1 X88.61 Y115.236 E0.40865
G1 X88.117 Y118.071 E0.46392
G1 X88.056 Y118.751 E0.47703
G1 X88.092 Y119.326 E0.4881
G1 X88.206 Y119.891 E0.49917
G1 X88.398 Y120.434 E0.51023
G1 X88.663 Y120.946 E0.52131
G1 X88.997 Y121.416 E0.53238
G1 X89.392 Y121.835 E0.54344
G1 X89.841 Y122.196 E0.55451
G1 X90.336 Y122.491 E0.56558
G1 X90.867 Y122.715 E0.57665
G1 X91.424 Y122.863 E0.58772
G1 X93.901 Y123.341 E0.63617
G1 X95.913 Y123.703 E0.67544
G1 X97.506 Y124.004 E0.70658
G1 X99.888 Y124.433 E0.75307
G1 X101.257 Y124.695 E0.77984
G1 X103.11 Y125.032 E0.81601
G1 X104.692 Y125.333 E0.84695
G1 X106.614 Y125.679 E0.88446
G1 X108.555 Y126.046 E0.9224
G1 X110.554 Y126.4 E0.96139
G1 X111.776 Y126.627 E0.98527
G1 X112.46 Y126.735 E0.99857
G1 X113.142 Y126.784 E1.0117
G1 X113.716 Y126.738 E1.02276
G1 X114.278 Y126.613 E1.03382
G1 X114.818 Y126.411 E1.04489
G1 X115.325 Y126.136 E1.05597
G1 X115.788 Y125.794 E1.06703
G1 X116.201 Y125.392 E1.0781
G1 X116.553 Y124.936 E1.08916
G1 X116.839 Y124.435 E1.10024
G1 X117.053 Y123.9 E1.11131
G1 X117.378 Y122.888 E1.13173
G1 X118.266 Y120.244 E1.1853
G1 X119.199 Y117.707 E1.23722
G1 X120.21 Y115.175 E1.28959
G1 X121.285 Y112.695 E1.34151
G1 X121.731 Y111.705 E1.36236
G1 X121.865 Y111.369 E1.36931
G1 X122.017 Y110.813 E1.38038
G1 X122.148 Y110.158 E1.39321
G1 X123.262 Y104.128 E1.511
G1 X123.453 Y102.962 E1.53369
G1 X123.507 Y102.353 E1.54543
G1 X123.516 Y101.723 E1.55754
G1 X123.516 Y99.905 E1.59246
G1 X123.496 Y98.864 E1.61245
G1 X123.46 Y98.392 E1.62155
G1 X123.344 Y97.828 E1.63261
G1 X123.151 Y97.285 E1.64368
G1 X122.884 Y96.774 E1.65475
G1 X122.55 Y96.305 E1.66581
G1 X122.154 Y95.887 E1.67687
G1 X121.703 Y95.527 E1.68795
G1 X121.208 Y95.233 E1.69901
G1 X120.676 Y95.011 E1.71008
G1 X120.119 Y94.864 E1.72115
G1 X119.415 Y94.73 E1.73491
G1 X114.069 Y93.796 E1.83915
G1 X113.687 Y93.74 E1.84657
G1 X112.955 Y93.702 E1.86065
G1 X108.91 Y93.849 E1.9384
G1 X106.189 Y93.853 E1.99066
G1 X103.526 Y93.781 E2.04183
G1 X100.797 Y93.631 E2.09433
G1 X98.071 Y93.402 E2.14687
G1 X97.374 Y93.324 E2.16034
G1 X96.372 Y93.227 E2.17968
G1 X96.029 Y93.208 E2.18628
G1 X95.454 Y93.241 E2.19734
G1 X94.888 Y93.352 E2.20842
G1 X94.344 Y93.541 E2.21948
G1 X93.831 Y93.803 E2.23054
G1 X93.359 Y94.134 E2.24162
G1 X92.937 Y94.527 E2.25269
G0 F1171.8 X93.362 Y94.753
G1 F1500 X93.007 Y95.164 E2.26312
G1 X92.717 Y95.623 E2.27355
G1 X92.497 Y96.12 E2.28399
G1 X92.352 Y96.643 E2.29442
G1 X92.221 Y97.301 E2.3073
G1 X91.772 Y99.738 E2.3549
G1 X91.449 Y101.717 E2.39342
G1 X91.112 Y103.654 E2.43118
G1 X90.57 Y106.6 E2.48872
G1 X90.24 Y108.623 E2.52809
G1 X89.908 Y110.529 E2.56525
G1 X89.359 Y113.514 E2.62354
G1 X89.059 Y115.354 E2.65935
G1 X88.573 Y118.15 E2.71386
G1 X88.534 Y118.444 E2.71956
G1 X88.524 Y118.987 E2.72999
G1 X88.593 Y119.526 E2.74043
G1 X88.741 Y120.048 E2.75085
G1 X88.965 Y120.543 E2.76129
G1 X89.258 Y121.001 E2.77173
G1 X89.615 Y121.41 E2.78216
G1 X90.028 Y121.762 E2.79258
G1 X90.489 Y122.05 E2.80302
G1 X90.987 Y122.267 E2.81346
G1 X91.511 Y122.409 E2.82388
G1 X94.034 Y122.896 E2.87324
G1 X96.03 Y123.255 E2.91219
G1 X97.622 Y123.555 E2.94331
G1 X99.975 Y123.979 E2.98923
G1 X101.378 Y124.247 E3.01667
G1 X103.197 Y124.578 E3.05218
G1 X104.815 Y124.886 E3.08382
G1 X106.732 Y125.231 E3.12123
G1 X108.684 Y125.6 E3.15939
G1 X110.635 Y125.945 E3.19744
G1 X111.861 Y126.173 E3.2214
G1 X112.531 Y126.278 E3.23442
G1 X112.857 Y126.314 E3.24072
G1 X113.4 Y126.31 E3.25115
G1 X113.936 Y126.225 E3.26158
G1 X114.455 Y126.063 E3.27202
G1 X114.944 Y125.827 E3.28245
G1 X115.393 Y125.522 E3.29287
G1 X115.792 Y125.153 E3.30331
G1 X116.134 Y124.731 E3.31375
G1 X116.409 Y124.263 E3.32417
G1 X116.613 Y123.759 E3.33462
G1 X116.94 Y122.741 E3.35515
G1 X117.832 Y120.084 E3.40899
G1 X118.767 Y117.542 E3.46101
G1 X119.772 Y115.027 E3.51303
G1 X120.886 Y112.456 E3.56685
G1 X121.31 Y111.515 E3.58668
G1 X121.419 Y111.246 E3.59225
G1 X121.564 Y110.722 E3.6027
G1 X121.706 Y110.013 E3.61658
G1 X122.808 Y104.044 E3.73317
G1 X122.997 Y102.888 E3.75567
G1 X123.045 Y102.347 E3.7661
G1 X123.054 Y101.717 E3.77821
G1 X123.053 Y99.832 E3.81441
G1 X123.034 Y98.873 E3.83284
G1 X122.958 Y98.194 E3.84596
G1 X122.808 Y97.672 E3.85639
G1 X122.584 Y97.177 E3.86683
G1 X122.289 Y96.721 E3.87726
G1 X121.931 Y96.313 E3.88769
G1 X121.517 Y95.961 E3.89812
G1 X121.056 Y95.675 E3.90854
G1 X120.557 Y95.459 E3.91899
G1 X120.033 Y95.318 E3.92941
G1 X119.273 Y95.174 E3.94427
G1 X113.87 Y94.232 E4.04961
G1 X113.622 Y94.197 E4.05442
G1 X112.972 Y94.163 E4.06693
G1 X108.899 Y94.311 E4.14521
G1 X106.212 Y94.315 E4.19682
G1 X103.454 Y94.241 E4.24982
G1 X100.766 Y94.092 E4.30153
G1 X98.055 Y93.865 E4.35378
G1 X97.263 Y93.777 E4.36909
G1 X96.327 Y93.687 E4.38715
G1 X95.79 Y93.675 E4.39747
G1 X95.251 Y93.741 E4.4079
G1 X94.728 Y93.887 E4.41833
G1 X94.232 Y94.107 E4.42875
G1 X93.773 Y94.398 E4.43919
G1 X93.362 Y94.753 E4.44962
G0 F1171.8 X93.783 Y94.988
G1 F1500 X93.438 Y95.361 E4.45938
G1 X93.156 Y95.783 E4.46913
G1 X92.943 Y96.244 E4.47888
G1 X92.805 Y96.733 E4.48864
G1 X92.684 Y97.342 E4.50057
G1 X92.228 Y99.812 E4.54881
G1 X91.903 Y101.802 E4.58754
G1 X91.566 Y103.738 E4.62529
G1 X91.037 Y106.611 E4.6814
G1 X90.695 Y108.697 E4.722
G1 X90.363 Y110.613 E4.75935
G1 X89.826 Y113.523 E4.81619
G1 X89.521 Y115.394 E4.8526
G1 X89.028 Y118.229 E4.90787
G1 X88.982 Y118.665 E4.91629
G1 X89.004 Y119.173 E4.92606
G1 X89.104 Y119.671 E4.93582
G1 X89.282 Y120.147 E4.94558
G1 X89.532 Y120.589 E4.95533
G1 X89.848 Y120.987 E4.96509
G1 X90.223 Y121.33 E4.97485
G1 X90.647 Y121.61 E4.98461
G1 X91.109 Y121.82 E4.99436
G1 X91.599 Y121.955 E5.00412
G1 X94.076 Y122.433 E5.05258
G1 X96.084 Y122.795 E5.09177
G1 X97.677 Y123.096 E5.12291
G1 X100.096 Y123.532 E5.17012
G1 X101.431 Y123.787 E5.19623
G1 X103.309 Y124.129 E5.23289
G1 X104.865 Y124.425 E5.26331
G1 X106.786 Y124.771 E5.30081
G1 X108.727 Y125.138 E5.33875
G1 X110.687 Y125.485 E5.37698
G1 X111.945 Y125.719 E5.40156
G1 X112.602 Y125.822 E5.41433
G1 X113.099 Y125.86 E5.42391
G1 X113.606 Y125.82 E5.43368
G1 X114.099 Y125.701 E5.44342
G1 X114.568 Y125.506 E5.45317
G1 X115.001 Y125.239 E5.46294
G1 X115.387 Y124.909 E5.4727
G1 X115.716 Y124.522 E5.48246
G1 X115.98 Y124.088 E5.49221
G1 X116.173 Y123.618 E5.50197
G1 X116.502 Y122.594 E5.52263
G1 X117.402 Y119.913 E5.57695
G1 X118.326 Y117.401 E5.62836
G1 X119.345 Y114.85 E5.68112
G1 X120.462 Y112.273 E5.73507
G1 X120.889 Y111.325 E5.75504
G1 X121.111 Y110.632 E5.76902
G1 X121.242 Y109.977 E5.78185
G1 X122.365 Y103.894 E5.90067
G1 X122.541 Y102.814 E5.92168
G1 X122.583 Y102.34 E5.93082
G1 X122.592 Y101.71 E5.94293
G1 X122.592 Y99.905 E5.9776
G1 X122.572 Y98.882 E5.99725
G1 X122.548 Y98.548 E6.00368
G1 X122.446 Y98.05 E6.01345
G1 X122.268 Y97.575 E6.02319
G1 X122.016 Y97.133 E6.03296
G1 X121.699 Y96.736 E6.04272
G1 X121.324 Y96.394 E6.05247
G1 X120.899 Y96.115 E6.06223
G1 X120.436 Y95.906 E6.07199
G1 X119.946 Y95.772 E6.08175
G1 X119.242 Y95.638 E6.09551
G1 X113.91 Y94.706 E6.19948
G1 X113.558 Y94.655 E6.20631
G1 X112.989 Y94.625 E6.21726
G1 X108.917 Y94.773 E6.29552
G1 X106.201 Y94.777 E6.34769
G1 X103.45 Y94.703 E6.40055
G1 X100.74 Y94.553 E6.45268
G1 X97.997 Y94.324 E6.50555
G1 X97.271 Y94.242 E6.51959
G1 X96.283 Y94.147 E6.53865
G1 X95.602 Y94.154 E6.55173
G1 X95.103 Y94.252 E6.5615
G1 X94.626 Y94.427 E6.57126
G1 X94.183 Y94.674 E6.581
G1 X93.783 Y94.988 E6.59077
;;retract move;;
G1 F937.4 X93.438 Y95.361 E6.30577
G1 X93.156 Y95.783 E6.02077
G1 X92.943 Y96.244 E5.73577
G1 X92.814 Y96.704 E5.45077
G1 F1800 E5.39077
G0 F1171.8 X93.581 Y96.849 Z0.5
G0 X95.931 Y97.295
;TYPE:SUPPORT
G1 F600 Z0.1
G1 F1800 E6.59077
G1 X95.185 Y101.331 E6.65384
G1 X95.185 Y103.127 E6.68144
G1 X94.985 Y103.385 E6.68645
G1 X94.858 Y103.437 E6.68856
G1 X93.977 Y108.223 E6.76334
G1 X93.977 Y110.056 E6.7915
G1 X93.778 Y110.276 E6.79606
G1 X93.651 Y110.328 E6.79817
G1 X92.77 Y115.114 E6.87295
G1 X92.77 Y116.965 E6.90139
G1 X92.571 Y117.175 E6.90584
G1 X92.442 Y117.228 E6.90798
G1 X92.144 Y118.828 E6.93299
G1 X93.599 Y119.093 E6.95572
G1 X94.013 Y119.192 E6.96226
G1 X97.464 Y119.799 E7.0161
G1 X97.573 Y119.847 E7.01793
G1 X100.895 Y120.428 E7.06975
G1 X101.322 Y120.535 E7.07652
G1 X104.606 Y121.117 E7.12776
G1 X104.787 Y121.179 E7.1307
G1 X108.148 Y121.771 E7.18314
G1 X108.601 Y121.884 E7.19032
G1 X111.502 Y122.389 E7.23557
G1 F1630.6 X111.946 Y122.43 E7.24313
G1 F1593.1 X111.778 Y122.29 E7.24693
G1 F1725.3 X111.778 Y114.927 E7.36497
G1 F1754.4 X111.778 Y107.564 E7.48105
G1 F1784.5 X111.778 Y100.201 E7.59517
G1 F1800 X109.09 Y99.73 E7.6371
G1 X108.5 Y99.612 E7.64635
G1 X107.808 Y99.492 E7.65714
G1 X107.397 Y99.409 E7.66358
G1 X106.573 Y99.264 E7.67644
G1 X106.21 Y99.187 E7.68214
G1 X104.157 Y98.82 E7.71419
G1 X103.769 Y98.741 E7.72027
G1 X102.961 Y98.596 E7.73288
G1 X102.492 Y98.501 E7.74024
G1 X100.48 Y98.139 E7.77165
G1 X100.225 Y98.086 E7.77565
G1 X99.348 Y97.93 E7.78934
G1 X98.989 Y97.856 E7.79497
G1 X95.931 Y97.295 E7.84275
;;retract move;;
G1 F937.4 X95.568 Y99.261 E6.70275
G1 F1800 E6.64275
G0 F1171.8 X95.597 Y100.041 Z0.5
G0 X95.648 Y101.378
G1 F600 Z0.1
G1 F1800 E7.84275
G1 X95.646 Y103.345 E7.87297
G1 X95.272 Y103.758 E7.88153
G1 X94.439 Y108.27 E7.95204
G1 X94.438 Y110.216 E7.98194
G1 X94.065 Y110.651 E7.99075
G1 X93.232 Y115.161 E8.06122
G1 X93.233 Y116.908 E8.08806
G1 X93.144 Y117.231 E8.09321
G1 X92.855 Y117.549 E8.09982
G1 X92.684 Y118.455 E8.11398
G1 X93.681 Y118.639 E8.12956
G1 X94.135 Y118.747 E8.13673
G1 X97.589 Y119.353 E8.19062
G1 X97.705 Y119.399 E8.19254
G1 X100.993 Y119.975 E8.24383
G1 X101.417 Y120.081 E8.25054
G1 X104.707 Y120.667 E8.3019
G1 X104.902 Y120.729 E8.30504
G1 X108.278 Y121.325 E8.35772
G1 X108.695 Y121.43 E8.36433
G1 X111.317 Y121.888 E8.40523
G1 X111.316 Y100.589 E8.73251
G1 X109.011 Y100.186 E8.76847
G1 X108.47 Y100.077 E8.77695
G1 X107.73 Y99.949 E8.78849
G1 X107.312 Y99.864 E8.79504
G1 X106.479 Y99.717 E8.80804
G1 X106.122 Y99.642 E8.81364
G1 X104.076 Y99.276 E8.84558
G1 X103.683 Y99.196 E8.85175
G1 X102.885 Y99.053 E8.8642
G1 X102.406 Y98.956 E8.87171
G1 X100.399 Y98.595 E8.90305
G1 X100.138 Y98.541 E8.90714
G1 X99.268 Y98.386 E8.92072
G1 X98.93 Y98.317 E8.92602
G1 X96.303 Y97.834 E8.96707
G1 X95.648 Y101.378 E9.02245
;;retract move;;
G1 F937.4 X95.646 Y103.345 E8.45245
G1 X95.624 Y103.369 E7.88245
G1 F1800 E7.82245
G0 F1171.8 X95.705 Y103.969 Z0.5
G1 F600 Z0.1
G1 F1800 E9.02245
G1 X94.901 Y108.317 E9.09039
G1 X94.894 Y110.222 E9.11966
G1 X94.814 Y110.491 E9.12398
G1 X94.499 Y110.852 E9.13134
G1 X93.694 Y115.208 E9.19941
G1 X93.695 Y116.974 E9.22654
G1 X93.558 Y117.471 E9.23447
G1 X93.287 Y117.762 E9.24058
G1 X93.226 Y118.083 E9.2456
G1 X93.764 Y118.184 E9.25401
G1 X94.257 Y118.301 E9.26179
G1 X97.688 Y118.902 E9.31532
G1 X97.827 Y118.95 E9.31758
G1 X101.09 Y119.522 E9.36848
G1 X101.512 Y119.627 E9.37516
G1 X104.86 Y120.229 E9.42744
G1 X105.01 Y120.278 E9.42986
G1 X108.392 Y120.876 E9.48263
G1 X108.79 Y120.977 E9.48894
G1 X110.855 Y121.337 E9.52115
G1 X110.854 Y100.978 E9.83399
G1 X108.932 Y100.642 E9.86398
G1 X108.386 Y100.532 E9.87253
G1 X107.651 Y100.405 E9.884
G1 X107.227 Y100.319 E9.89064
G1 X106.4 Y100.174 E9.90355
G1 X106.035 Y100.097 E9.90928
G1 X103.995 Y99.732 E9.94112
G1 X103.597 Y99.651 E9.94736
G1 X102.799 Y99.508 E9.95982
G1 X102.32 Y99.411 E9.96733
G1 X100.318 Y99.051 E9.99859
G1 X100.052 Y98.996 E10.00276
G1 X99.187 Y98.842 E10.01626
G1 X98.863 Y98.776 E10.02134
