;FLAVOR:Marlin
;TIME:1978.96
;Filament used:3.34658m
;Material Diameter:1.75
;Material Density:1.24
;Filament Cost:0.199627
;Filament Weight:9.981326
;Filament Length:3.346575
;Layer height:0.28
;MINX:0.504
;MINY:0.596
;MINZ:0.1
;MAXX:120.649
;MAXY:120.648
;MAXZ:49.22
;OuterWall Time:489.94
;InnerWall Time:380.471
;Skin Time:179.111
;Support Time:0
;SkirtBrim Time:0
;Infill Time:607.359
;Support Infills Time:0
;Combing Time:110.398
;Retraction Time:211.684
;PrimeTower Time:0


;;;;;;;;;;;;;;;;;;;;;;;;;;;;;;;;;;;;;;;;;;;;;;;;;;;;;;;;;;;;;;;;;;;;;;;;;;;;
;Creality Print GCode Generated by CXEngine
;CRSLICE_GIT_HASH:58ee74d
;Creality Print Version : V4.3.8.6984
;CXEngine Release Time:2023-12-04 18:16:29
;Gcode Generated Time:2024-02-17 00:56:28
;----------Machine Config--------------
;Machine Name:Ender-3 V3 SE
;Machine Height:250
;Machine Width:220
;Machine Depth:220
;Material Type:PLA
;Material Name:CR-PLA_1.75
;Number of Extruders:1
;ExtruderParams[0] Nozzle Diameter:1000
;----------Profile Config---------------
;Wall Thickness:0.8
;Top/Bottom Thickness:0.8
;Out Wall Line Width:0.42
;Inner Wall Line Width:0.45
;Inital Height:100
;Wall Line Count:2
;Infill Line Distance:3.18
;Infill Pattern:grid
;Infill Sparse Density:28.28
;Infill Wipe Distance:0
;Print Temperature:190
;Bed Temperature:60
;Support Enable:true
;Support Density:15
;Support Angle:60
;Adhesion Type:autobrim
;machine is belt:false
;machine belt offset:10
;machine belt offset Y:0
;Raft Base Line Spacing:1.6
;Wait Heatup Sync:true
;Enable Ironing:false
;Material Type:PLA
;Max volumetric speed:20
;Preview Img Type:png
;Screen Size:Sermoon D3
;----------Shell Config----------------
;Outer Wall Wipe Distance:2000
;Outer Inset First:false
;Infill Before Walls:false
;Infill Overlap:0.14
;Fill Gaps Between Walls:everywhere
;Minimum Infill Area:30
;Top Surface Skin Layer:0
;Top Layers:8
;Z Seam Alignment:sharpest_corner
;Seam Corner Preference:z_seam_corner_inner
;Z Seam X:110
;Z Seam Y:220
;Horizontal Expansion:0
;Top/Bottom Pattern:zigzag
;Ironing Pattern:zigzag
;Vase Model:false
;----------Support Config----------------
;Support Type:everywhere
;Support Pattern:zigzag
;Support Infill Layer Thickness:0.28
;Minimum Support Area:1
;Enable Support Roof:true
;Support Roof Thickness:0.8
;Support Roof Pattern:lines
;Connect Support Lines:0
;Connect Support ZigZags:1
;Minimum Support X/Y Distance:0.2
;Support Line Distance:2.67
; ---------PrintSpeed & Travel----------
;Enable Print Cool:true
;Avoid Printed Parts Traveling:true
;Enable Retraction:true
;Retraction Distance:1.2
;Retraction Speed:30
;Retraction Prime Speed:30
;Maximum Retraction Count:100
;Minimum Extrusion Distance Window:0.8
;Z Hop When Retracted:true
;Z Hop Height:0.4
;Retract Before Outer Wall:true

;Outer Wall Speed:96
;Inner Wall Speed:96
;Infill Speed:192
;Top/Bottom Speed:96
;Travel Speed:150
;Initial Layer Speed:30
;Skirt/Brim Speed:25
;Prime Tower Speed:192
;Outer Wall Acceleration:1000
;Inner Wall Acceleration:2000
;Infill Acceleration:2500
;Top/Bottom Acceleration:2500
;Travel Acceleration:2500
;Initial Layer Print Acceleration:500
;Initial Layer Travel Acceleration:500
;Skirt/Brim Acceleration:500
;Combing Mode:off
; --------SpecialModel&Mesh Fixes--------
;Union Overlapping Volum:true
;Remove All Holes:false
;Maximum Travel Resolution:0.2
;Maximum Deviation:0.05
;Maximum Model Angle:0.872665
;IS Mold Print:false
;Make Overhang Printable:false
;Enable Coasting:false
;Coasting Volumes:0.064
;Coasting Speed:0.9
;Raft AirGap:0.25
;Layer0 ZOverLap:0.13
;Adaptive Layers:0
;---------------------End of Head--------------------------
M140 S60
M105
M190 S60
M104 S190
M82 ;absolute extrusion mode
M220 S100 ;Reset Feedrate
M221 S100 ;Reset Flowrate

G28 ;Home

G92 E0 ;Reset Extruder
G1 Z2.0 F3000 ;Move Z Axis up
G1 X-2.1 Y20 Z0.28 F5000.0 ;Move to start position
M109 S190.000000
G1 X-2.1 Y145.0 Z0.28 F1500.0 E15 ;Draw the first line
G1 X-2.4 Y145.0 Z0.28 F5000.0 ;Move to side a little
G1 X-2.4 Y20 Z0.28 F1500.0 E30 ;Draw the second line
G92 E0  ;Reset Extruder
G1 E-1.0000 F1800 ;Retract a bit
G1 Z2.0 F3000 ;Move Z Axis up
G1 E0.0000 F1800 

G92 E0
G92 E0
G1 F1800 E-1.2
;LAYER_COUNT:175

;LAYER:0
M106 S0
M204 S500
;;retract;;
G1 F1800 E0
G1 F1800 E-1.2
G0 F1171.8 X0.504 Y0.596 Z20.401
;MESH:0_0
G0 X99.375 Y117.67 Z0.5
;TYPE:WALL-OUTER
G1 F600 Z0.1
G1 F1800 E0
G1 X102.329 Y99.376 E0.33814
G1 X120.625 Y102.33 E0.67632
G1 X117.671 Y120.624 E1.01446
G1 X99.375 Y117.67 E1.35264
G0 F1171.8 X99.923 Y117.275
;TYPE:WALL-INNER
G1 F1800 X102.725 Y99.924 E1.69625
G1 X120.077 Y102.725 E2.03989
G1 X117.275 Y120.076 E2.38351
G1 X99.923 Y117.275 E2.72715
;;retract move;;
G1 F937.4 X100.241 Y115.301 E1.58715
G1 F1800 E1.52715
G0 F1171.8 X100.473 Y116.878 Z0.5
;TYPE:SKIN
G1 F600 Z0.1
G1 F1800 E2.72715
G1 X116.879 Y119.526 E3.04635
G1 X119.527 Y103.122 E3.36551
G1 X103.121 Y100.474 E3.68471
G1 X100.473 Y116.878 E4.00387
G0 F1171.8 X101.557 Y116.584
G1 F1800 X101.067 Y116.094 E4.01718
G1 X101.003 Y116.495 E4.02498
G1 X102.336 Y116.71 E4.05092
G1 X101.157 Y115.532 E4.08293
G1 X101.249 Y114.969 E4.09389
G1 X103.115 Y116.836 E4.14459
G1 X103.894 Y116.961 E4.15974
G1 X101.339 Y114.407 E4.22913
G1 X101.43 Y113.844 E4.24009
G1 X104.673 Y117.087 E4.32818
G1 X105.452 Y117.213 E4.34333
G1 X101.521 Y113.282 E4.45012
G1 X101.611 Y112.719 E4.46107
G1 X106.232 Y117.339 E4.58658
G1 X107.01 Y117.464 E4.60171
G1 X101.703 Y112.157 E4.74587
G1 X101.793 Y111.594 E4.75682
G1 X107.789 Y117.59 E4.9197
G1 X108.569 Y117.716 E4.93487
G1 X101.884 Y111.031 E5.11646
G1 X101.975 Y110.469 E5.1274
G1 X109.348 Y117.842 E5.32768
G1 X110.126 Y117.967 E5.34281
G1 X102.065 Y109.906 E5.56178
G1 X102.156 Y109.343 E5.57273
G1 X110.906 Y118.093 E5.81042
G1 X111.685 Y118.219 E5.82558
G1 X102.247 Y108.781 E6.08195
G1 X102.338 Y108.218 E6.0929
G1 X112.464 Y118.344 E6.36796
G1 X113.243 Y118.47 E6.38312
G1 X102.429 Y107.656 E6.67687
G1 X102.519 Y107.093 E6.68782
G1 X114.022 Y118.595 E7.00027
G1 X114.801 Y118.721 E7.01543
G1 X102.61 Y106.53 E7.34658
G1 X102.701 Y105.968 E7.35752
G1 X115.58 Y118.847 E7.70736
G1 X116.359 Y118.972 E7.72252
G1 X102.792 Y105.405 E8.09105
G1 X102.882 Y104.842 E8.102
G1 X116.571 Y118.531 E8.47385
G1 X116.662 Y117.969 E8.48478
G1 X102.973 Y104.28 E8.85663
G1 X103.064 Y103.717 E8.86758
G1 X116.753 Y117.406 E9.23943
G1 X116.843 Y116.843 E9.25038
G1 X103.155 Y103.155 E9.6222
G1 X103.246 Y102.592 E9.63315
G1 X116.934 Y116.281 E10.00498
G1 X117.025 Y115.718 E10.01594
G1 X103.336 Y102.029 E10.38778
G1 X103.427 Y101.467 E10.39872
G1 X117.116 Y115.156 E10.77056
G1 X117.207 Y114.593 E10.78152
G1 X103.639 Y101.026 E11.15006
G1 X104.418 Y101.151 E11.16522
G1 X117.297 Y114.03 E11.51506
G1 X117.388 Y113.468 E11.526
G1 X105.197 Y101.277 E11.85715
G1 X105.976 Y101.403 E11.87231
G1 X117.479 Y112.905 E12.18476
G1 X117.569 Y112.343 E12.19569
G1 X106.756 Y101.529 E12.48943
G1 X107.534 Y101.654 E12.50456
G1 X117.661 Y111.78 E12.77964
G1 X117.751 Y111.217 E12.79059
G1 X108.313 Y101.78 E13.04695
G1 X109.093 Y101.906 E13.06212
G1 X117.842 Y110.655 E13.29978
G1 X117.933 Y110.092 E13.31073
G1 X109.872 Y102.031 E13.5297
G1 X110.65 Y102.157 E13.54484
G1 X118.023 Y109.53 E13.74512
G1 X118.115 Y108.967 E13.75608
G1 X111.43 Y102.282 E13.93767
G1 X112.209 Y102.408 E13.95282
G1 X118.205 Y108.405 E14.11571
G1 X118.296 Y107.842 E14.12667
G1 X112.988 Y102.534 E14.27085
G1 X113.767 Y102.659 E14.28601
G1 X118.387 Y107.28 E14.41152
G1 X118.477 Y106.717 E14.42247
G1 X114.546 Y102.785 E14.52926
G1 X115.325 Y102.911 E14.54442
G1 X118.569 Y106.155 E14.63254
G1 X118.659 Y105.592 E14.64349
G1 X116.104 Y103.037 E14.71289
G1 X116.883 Y103.162 E14.72805
G1 X118.75 Y105.029 E14.77876
G1 X118.841 Y104.467 E14.7897
G1 X117.662 Y103.288 E14.82172
G1 X118.996 Y103.503 E14.84768
G1 X118.931 Y103.904 E14.85548
G1 X118.441 Y103.414 E14.86879
;;retract move;;
G1 F937.4 X118.931 Y103.904 E14.64079
G1 X118.996 Y103.503 E14.41279
G1 X118.106 Y103.36 E14.18479
G1 X118.996 Y103.503 E13.95679
G1 X118.931 Y103.904 E13.72879
G1 F1800 E13.66879
G0 F1171.8 X118.292 Y104.353 Z0.5
;MESH:NONMESH
G0 X99.354 Y117.667
;TIME_ELAPSED:39.850442

;LAYER:1
M106 S127.5
M204 S1500
;MESH:0_0
G0 F5085.9 X99.354 Y117.667 Z0.78
M204 S750
;TYPE:WALL-OUTER
G1 F600 Z0.38
G1 F1800 E14.86879
G1 F3780 X99.442 Y117.121 E14.89448
G1 X99.76 Y115.147 E14.98735
G1 X100.079 Y113.173 E15.08023
G1 X100.398 Y111.198 E15.17315
G1 X100.717 Y109.224 E15.26603
G1 X101.035 Y107.249 E15.35894
G1 X101.354 Y105.275 E15.45182
G1 X101.673 Y103.3 E15.54474
G1 X101.992 Y101.326 E15.63762
G1 X102.311 Y99.352 E15.7305
G1 X102.879 Y99.443 E15.75722
G1 X104.853 Y99.762 E15.85009
G1 X106.827 Y100.081 E15.94297
G1 X108.802 Y100.399 E16.03589
G1 X110.776 Y100.718 E16.12877
G1 X112.751 Y101.037 E16.22169
G1 X114.725 Y101.355 E16.31456
G1 X116.7 Y101.674 E16.40748
G1 X118.674 Y101.993 E16.50036
G1 X120.649 Y102.312 E16.59328
G1 X117.689 Y120.648 E17.45597
G1 X117.12 Y120.556 E17.48275
G1 X115.146 Y120.237 E17.57562
G1 X113.172 Y119.918 E17.6685
G1 X111.197 Y119.6 E17.76142
G1 X109.223 Y119.281 E17.85429
G1 X107.248 Y118.962 E17.94722
G1 X105.274 Y118.644 E18.04009
G1 X103.299 Y118.325 E18.13301
G1 X101.325 Y118.006 E18.22589
G1 X99.351 Y117.688 E18.31876
G1 X99.354 Y117.667 E18.31974
M204 S1500
G0 F5085.9 X99.85 Y117.328
M204 S1250
;TYPE:WALL-INNER
G1 F3780 X100.121 Y115.646 E18.40453
G1 X100.44 Y113.671 E18.50409
G1 X100.759 Y111.697 E18.6036
G1 X101.077 Y109.723 E18.7031
G1 X101.396 Y107.748 E18.80267
G1 X101.715 Y105.774 E18.90218
G1 X102.034 Y103.799 E19.00174
G1 X102.353 Y101.825 E19.10125
G1 X102.672 Y99.851 E19.20076
G1 X104.354 Y100.122 E19.28555
G1 X106.328 Y100.441 E19.38506
G1 X108.303 Y100.759 E19.48461
G1 X110.277 Y101.078 E19.58412
G1 X112.252 Y101.397 E19.68368
G1 X114.226 Y101.715 E19.78319
G1 X116.201 Y102.034 E19.88275
G1 X118.175 Y102.353 E19.98226
G1 X120.15 Y102.672 E20.08182
G1 X117.328 Y120.149 E20.96283
G1 X115.645 Y119.877 E21.04768
G1 X113.671 Y119.558 E21.14719
G1 X111.696 Y119.24 E21.24674
G1 X109.722 Y118.921 E21.34625
G1 X107.747 Y118.602 E21.44581
G1 X105.773 Y118.284 E21.54532
G1 X103.798 Y117.965 E21.64488
G1 X101.824 Y117.646 E21.74439
G1 X99.85 Y117.328 E21.84389
M204 S1500
;;retract move;;
G1 F4068.7 X100.121 Y115.646 E21.27389
G1 X100.168 Y115.353 E20.70389
G1 F1800 E20.64389
G0 F5085.9 X100.35 Y116.967 Z0.78
;TYPE:SKIN
G1 F600 Z0.38
G1 F1800 E21.84389
G1 F3780 X116.968 Y119.649 E22.6669
G1 X119.65 Y103.033 E23.48981
G1 X103.032 Y100.351 E24.31282
G1 X100.35 Y116.967 E25.13573
;;retract move;;
G1 F4068.7 X100.668 Y114.993 E23.99573
G1 F1800 E23.93573
G0 F5085.9 X101.305 Y111.663 Z0.78
G0 X103.379 Y100.832
G1 F600 Z0.38
G1 F1800 E25.13573
G1 F3780 X103.357 Y100.968 E25.14247
G1 X103.478 Y100.847 E25.15083
G1 X103.989 Y100.93 E25.17614
G1 X103.243 Y101.676 E25.22772
G1 X103.128 Y102.384 E25.26279
G1 X104.5 Y101.013 E25.35763
G1 X105.012 Y101.095 E25.38298
G1 X103.014 Y103.093 E25.52113
G1 X102.9 Y103.801 E25.55619
G1 X105.523 Y101.177 E25.73759
G1 X106.034 Y101.26 E25.7629
G1 X102.785 Y104.509 E25.98755
G1 X102.671 Y105.218 E26.02266
G1 X106.546 Y101.343 E26.29059
G1 X107.058 Y101.425 E26.31595
G1 X102.557 Y105.926 E26.62717
G1 X102.442 Y106.634 E26.66223
G1 X107.569 Y101.508 E27.0167
G1 X108.08 Y101.59 E27.04201
G1 X102.328 Y107.343 E27.43976
G1 X102.214 Y108.05 E27.47477
G1 X108.591 Y101.673 E27.91571
G1 X109.103 Y101.755 E27.94106
G1 X102.099 Y108.759 E28.42534
G1 X101.985 Y109.467 E28.46041
G1 X109.614 Y101.838 E28.98791
G1 X110.126 Y101.92 E29.01326
G1 X101.871 Y110.175 E29.58405
G1 X101.756 Y110.884 E29.61916
G1 X110.637 Y102.003 E30.23323
G1 X111.148 Y102.086 E30.25855
G1 X101.642 Y111.592 E30.91583
G1 X101.528 Y112.3 E30.95089
G1 X111.66 Y102.168 E31.65146
G1 X112.171 Y102.251 E31.67677
G1 X101.413 Y113.009 E32.42063
G1 X101.3 Y113.716 E32.45563
G1 X112.683 Y102.333 E33.2427
G1 X113.194 Y102.416 E33.26802
G1 X101.185 Y114.425 E34.09837
G1 X101.071 Y115.133 E34.13343
G1 X113.706 Y102.498 E35.00707
G1 X114.217 Y102.581 E35.03238
G1 X100.957 Y115.841 E35.94923
G1 X100.842 Y116.55 E35.98435
G1 X114.728 Y102.664 E36.94449
G1 X115.24 Y102.746 E36.96984
G1 X101.293 Y116.693 E37.9342
G1 X101.804 Y116.775 E37.9595
G1 X115.751 Y102.828 E38.92386
G1 X116.263 Y102.911 E38.94922
G1 X102.316 Y116.858 E39.91357
G1 X102.828 Y116.94 E39.93892
G1 X116.774 Y102.994 E40.90321
G1 X117.285 Y103.077 E40.92852
G1 X103.339 Y117.023 E41.89281
G1 X103.85 Y117.106 E41.91812
G1 X117.797 Y103.159 E42.88247
G1 X118.308 Y103.241 E42.90778
G1 X104.361 Y117.188 E43.87213
G1 X104.873 Y117.271 E43.89749
G1 X118.82 Y103.324 E44.86185
G1 X119.167 Y103.381 E44.87904
G1 X119.131 Y103.607 E44.89023
G1 X105.385 Y117.353 E45.84069
G1 X105.896 Y117.436 E45.866
G1 X119.016 Y104.315 E46.77321
G1 X118.902 Y105.023 E46.80827
G1 X106.407 Y117.519 E47.67226
G1 X106.918 Y117.601 E47.69756
G1 X118.788 Y105.732 E48.51827
G1 X118.673 Y106.44 E48.55334
G1 X107.43 Y117.683 E49.33073
G1 X107.941 Y117.766 E49.35604
G1 X118.559 Y107.148 E50.09022
G1 X118.445 Y107.857 E50.12533
G1 X108.453 Y117.849 E50.81622
G1 X108.964 Y117.931 E50.84152
G1 X118.33 Y108.565 E51.48913
G1 X118.216 Y109.273 E51.52419
G1 X109.476 Y118.014 E52.12854
G1 X109.987 Y118.096 E52.15385
G1 X118.102 Y109.981 E52.71495
G1 X117.987 Y110.69 E52.75007
G1 X110.498 Y118.179 E53.26789
G1 X111.01 Y118.262 E53.29325
G1 X117.873 Y111.398 E53.76782
G1 X117.759 Y112.106 E53.80289
G1 X111.522 Y118.344 E54.23417
G1 X112.033 Y118.426 E54.25948
G1 X117.644 Y112.815 E54.64744
G1 X117.531 Y113.523 E54.6825
G1 X112.544 Y118.509 E55.02729
G1 X113.055 Y118.592 E55.0526
G1 X117.416 Y114.231 E55.35414
G1 X117.301 Y114.94 E55.38925
G1 X113.567 Y118.675 E55.64747
G1 X114.078 Y118.757 E55.67278
G1 X117.188 Y115.648 E55.88778
G1 X117.073 Y116.356 E55.92285
G1 X114.59 Y118.839 E56.09454
G1 X115.101 Y118.922 E56.11985
G1 X116.958 Y117.065 E56.24825
G1 X116.845 Y117.772 E56.28325
G1 X115.612 Y119.005 E56.36851
G1 X116.124 Y119.087 E56.39386
G1 X116.73 Y118.481 E56.43576
G1 X116.62 Y119.167 E56.46973
;;retract move;;
G1 F4068.7 X116.73 Y118.481 E56.24173
G1 X116.124 Y119.087 E56.01373
G1 X115.681 Y119.016 E55.78573
G1 X116.124 Y119.087 E55.55773
G1 X116.73 Y118.481 E55.32973
G1 F1800 E55.26973
G0 F5085.9 X113.344 Y118.323 Z0.78
;MESH:NONMESH
G0 X99.354 Y117.668
;TIME_ELAPSED:57.913210

;LAYER:2
M106 S255
M204 S2500
;MESH:0_0
G0 F9000 X99.354 Y117.668 Z1.06
M204 S1000
;TYPE:WALL-OUTER
G1 F600 Z0.66
G1 F1800 E56.46973
G1 F5760 X99.442 Y117.121 E56.49546
G1 X99.76 Y115.147 E56.58833
G1 X100.079 Y113.173 E56.68121
G1 X100.398 Y111.198 E56.77414
G1 X100.717 Y109.224 E56.86701
G1 X101.035 Y107.249 E56.95993
G1 X101.354 Y105.275 E57.05281
G1 X101.673 Y103.3 E57.14573
G1 X101.992 Y101.326 E57.23861
G1 X102.311 Y99.352 E57.33148
G1 X120.649 Y102.312 E58.19427
G1 X120.557 Y102.878 E58.2209
G1 X120.238 Y104.852 E58.31378
G1 X119.92 Y106.826 E58.40665
G1 X119.601 Y108.801 E58.49957
G1 X119.282 Y110.775 E58.59245
G1 X118.963 Y112.75 E58.68537
G1 X118.645 Y114.724 E58.77824
G1 X118.326 Y116.699 E58.87117
G1 X118.007 Y118.673 E58.96404
G1 X117.689 Y120.648 E59.05696
G1 X117.12 Y120.556 E59.08373
G1 X115.146 Y120.237 E59.17661
G1 X113.172 Y119.918 E59.26949
G1 X111.197 Y119.6 E59.3624
G1 X109.223 Y119.281 E59.45528
G1 X107.248 Y118.962 E59.5482
G1 X105.274 Y118.644 E59.64107
G1 X103.299 Y118.325 E59.734
G1 X101.325 Y118.006 E59.82687
G1 X99.351 Y117.688 E59.91974
G1 X99.354 Y117.668 E59.92068
M204 S2500
G0 F9000 X99.85 Y117.328
M204 S2000
;TYPE:WALL-INNER
G1 F5760 X100.121 Y115.646 E60.00547
G1 X100.44 Y113.671 E60.10503
G1 X100.759 Y111.697 E60.20454
G1 X101.077 Y109.723 E60.30404
G1 X101.396 Y107.748 E60.40361
G1 X101.715 Y105.774 E60.50312
G1 X102.034 Y103.799 E60.60268
G1 X102.353 Y101.825 E60.70219
G1 X102.672 Y99.851 E60.8017
G1 X120.15 Y102.672 E61.68276
G1 X119.878 Y104.353 E61.7675
G1 X119.559 Y106.328 E61.86706
G1 X119.24 Y108.302 E61.96657
G1 X118.922 Y110.276 E62.06608
G1 X118.603 Y112.251 E62.16564
G1 X118.284 Y114.225 E62.26515
G1 X117.965 Y116.2 E62.36471
G1 X117.646 Y118.174 E62.46422
